X:184
T:Johan B\"orgessons polska
R:sl\"angpolska
C:Riksdagsmannen Johan B\"orgesson i Kr{\aa}ktorp
H:Spelad av honom sj\"alv d{\aa} kyrkoherde Sv. W{\ae}nerberg dansade f\"orsta
H:dansen med hans sonhustru p{\aa} dess br\"ollop 1799 i Virsersum
A:Sm{\aa}land
B:W{\ae}nerbergs samling, Sumlen 1976
Z:id:hn-sp-184
M:3/4
L:1/16
K:Gm
d4 e4 d4 | c4 d6 c2 | B2AB c2B2 A2G2 | G2^FG A2F2 D4 |
d4 e4 d4 | c4 f6 e2 | d2c2 B2A2 G2B2 | A2G^F G4 G,4 :|
|: g2a2 b4 a2g2 | g2^fg a2f2 d2f2 | g2a2 b2a2 b2g2 | ^fgaf g4 G4 |
g2a2 b4 a2g2 | g2^fg a2f2 d2=f2 | e2d2 c2B2 A2G2 | ^FGAF G4 G,4 :|

